src/images/googlePlay.svg

<svg width="202" height="49" viewBox="0 0 202 49" fill="none" xmlns="http://www.w3.org/2000/svg">
<g clip-path="url(#clip0_21_536)">
<path d="M101.422 26.6137C97.3259 26.6137 93.9771 29.735 93.9771 34.0266C93.9771 38.3182 97.315 41.4395 101.422 41.4395C105.53 41.4395 108.868 38.2966 108.868 34.0266C108.868 29.7566 105.53 26.6137 101.422 26.6137ZM101.422 38.5242C99.1791 38.5242 97.2392 36.6709 97.2392 34.0266C97.2392 31.3822 99.1791 29.529 101.422 29.529C103.666 29.529 105.606 31.3497 105.606 34.0266C105.606 36.7035 103.666 38.5242 101.422 38.5242ZM85.1879 26.6137C81.0913 26.6137 77.7425 29.735 77.7425 34.0266C77.7425 38.3182 81.0805 41.4395 85.1879 41.4395C89.2953 41.4395 92.6332 38.2966 92.6332 34.0266C92.6332 29.7566 89.2953 26.6137 85.1879 26.6137ZM85.1879 38.5242C82.9445 38.5242 81.0046 36.6709 81.0046 34.0266C81.0046 31.3822 82.9445 29.529 85.1879 29.529C87.4312 29.529 89.3712 31.3497 89.3712 34.0266C89.3712 36.7035 87.4312 38.5242 85.1879 38.5242ZM65.8755 28.8896V32.0325H73.3967C73.1691 33.799 72.5839 35.0887 71.6844 35.9882C70.5898 37.0828 68.8774 38.2857 65.8755 38.2857C61.237 38.2857 57.6173 34.5468 57.6173 29.9192C57.6173 25.2916 61.237 21.5526 65.8755 21.5526C68.3789 21.5526 70.1996 22.5388 71.5435 23.796L73.7652 21.5743C71.8794 19.7753 69.3868 18.3989 65.8755 18.3989C59.5247 18.3989 54.1926 23.5684 54.1926 29.9084C54.1926 36.2483 59.5247 41.4178 65.8755 41.4178C69.3001 41.4178 71.8903 40.2907 73.906 38.1882C75.9868 36.1074 76.6262 33.1921 76.6262 30.8295C76.6262 30.1034 76.5721 29.4207 76.4529 28.8679H65.8646L65.8755 28.8896ZM144.848 31.3281C144.231 29.6699 142.345 26.6137 138.498 26.6137C134.65 26.6137 131.507 29.6157 131.507 34.0266C131.507 38.1774 134.65 41.4395 138.866 41.4395C142.269 41.4395 144.231 39.3586 145.043 38.1557L142.518 36.4759C141.673 37.7113 140.524 38.5242 138.866 38.5242C137.208 38.5242 136.027 37.7655 135.268 36.2808L145.184 32.1842L144.848 31.3389V31.3281ZM134.737 33.799C134.65 30.9379 136.959 29.4749 138.617 29.4749C139.906 29.4749 141.001 30.1251 141.369 31.0463L134.748 33.799H134.737ZM126.674 40.9843H129.936V19.2009H126.674V40.9951V40.9843ZM121.342 28.2611H121.233C120.507 27.3941 119.098 26.6029 117.332 26.6029C113.625 26.6029 110.222 29.865 110.222 34.0483C110.222 38.2315 113.625 41.4286 117.332 41.4286C119.098 41.4286 120.507 40.6375 121.233 39.7488H121.342V40.8109C121.342 43.6503 119.825 45.1675 117.386 45.1675C115.392 45.1675 114.157 43.737 113.647 42.5232L110.808 43.7045C111.621 45.6661 113.788 48.0828 117.375 48.0828C121.19 48.0828 124.42 45.8395 124.42 40.3557V27.0472H121.331V28.2502L121.342 28.2611ZM117.603 38.5133C115.359 38.5133 113.474 36.6276 113.474 34.0483C113.474 31.469 115.359 29.529 117.603 29.529C119.846 29.529 121.559 31.4364 121.559 34.0483C121.559 36.6601 119.814 38.5133 117.603 38.5133ZM160.097 19.1901H152.305V40.9843H155.556V32.7261H160.097C163.706 32.7261 167.249 30.1143 167.249 25.9635C167.249 21.8127 163.706 19.2009 160.097 19.2009V19.1901ZM160.183 29.6916H155.556V22.2246H160.183C162.611 22.2246 163.998 24.2403 163.998 25.9635C163.998 27.6867 162.622 29.7024 160.183 29.7024V29.6916ZM180.287 26.5596C177.935 26.5596 175.497 27.6 174.489 29.8975L177.372 31.1005C177.989 29.8975 179.138 29.5074 180.341 29.5074C182.021 29.5074 183.733 30.5153 183.766 32.3143V32.5419C183.181 32.2059 181.913 31.6965 180.374 31.6965C177.263 31.6965 174.099 33.4089 174.099 36.6059C174.099 39.5212 176.646 41.3961 179.507 41.3961C181.696 41.3961 182.899 40.4099 183.657 39.2611H183.766V40.9409H186.909V32.5852C186.909 28.7162 184.026 26.5596 180.298 26.5596H180.287ZM179.897 38.5025C178.835 38.5025 177.35 37.9714 177.35 36.6493C177.35 34.9695 179.203 34.3192 180.796 34.3192C182.227 34.3192 182.899 34.6227 183.766 35.0453C183.517 37.0611 181.772 38.4916 179.897 38.4916V38.5025ZM198.342 27.0364L194.614 36.4867H194.506L190.637 27.0364H187.136L192.934 40.2365L189.629 47.5843H193.021L201.962 27.0364H198.342ZM169.048 40.9734H172.3V19.2009H169.048V40.9951V40.9734Z" fill="#2E65F2"/>
<path d="M62.57 3.08545C61.9197 2.50022 61.0527 2.13175 60.099 2.13175C57.9532 2.13175 56.3059 3.89826 56.3059 6.0766C56.3059 8.25493 57.9532 9.99977 60.099 9.99977C61.9414 9.99977 63.2853 8.92686 63.372 7.23621H60.4567V6.03325H64.9542C64.9542 9.6313 63.036 11.3328 60.099 11.3328C57.1621 11.3328 54.9187 8.98105 54.9187 6.0766C54.9187 3.17215 57.1837 0.80957 60.099 0.80957C61.4537 0.80957 62.6784 1.32977 63.567 2.16426L62.57 3.08545Z" fill="#2E65F2"/>
<path d="M72.9089 0.928711V2.21837H68.2163V5.4913H72.3129V6.7918H68.2163V9.89132H73.0498V11.181H66.8291V0.928711H72.8981H72.9089Z" fill="#2E65F2"/>
<path d="M81.8932 0.928711V2.24005H78.7828V11.181H77.3848V2.24005H74.2744V0.928711H81.8932Z" fill="#2E65F2"/>
<path d="M88.5259 0.928711V11.181H87.1387V0.928711H88.5259Z" fill="#2E65F2"/>
<path d="M97.9652 0.928711V2.24005H94.8548V11.181H93.4568V2.24005H90.3464V0.928711H97.9652Z" fill="#2E65F2"/>
<path d="M107.73 0.80957C110.667 0.80957 112.943 3.16131 112.943 6.0766C112.943 8.99188 110.667 11.3328 107.73 11.3328C104.793 11.3328 102.55 8.98105 102.55 6.0766C102.55 3.17215 104.815 0.80957 107.73 0.80957V0.80957ZM107.73 9.98893C109.887 9.98893 111.545 8.2441 111.545 6.0766C111.545 3.9091 109.897 2.14258 107.73 2.14258C105.562 2.14258 103.937 3.89826 103.937 6.0766C103.937 8.25493 105.584 9.98893 107.73 9.98893Z" fill="#2E65F2"/>
<path d="M121.125 11.181L116.454 3.45385V11.181H115.067V0.928711H116.432L121.06 8.59082V0.928711H122.447V11.181H121.125Z" fill="#2E65F2"/>
<path d="M0.0375977 4.55383V42.5813C0.0378514 42.6638 0.0623644 42.7444 0.108063 42.813C0.153761 42.8816 0.218611 42.9351 0.29448 42.9668C0.370348 42.9985 0.453859 43.0071 0.53454 42.9913C0.61522 42.9756 0.68948 42.9363 0.748005 42.8784L20.4727 23.5686L0.748005 4.25677C0.68948 4.19885 0.61522 4.15956 0.53454 4.14383C0.453859 4.1281 0.370348 4.13664 0.29448 4.16836C0.218611 4.20009 0.153761 4.25359 0.108063 4.32216C0.0623644 4.39074 0.0378514 4.47133 0.0375977 4.55383ZM28.7431 15.6341L4.01087 1.95577L3.99544 1.94706C3.56939 1.71483 3.16455 2.29347 3.51349 2.6302L22.9008 21.2395L28.7431 15.6341ZM3.51541 44.5069C3.16455 44.8436 3.56939 45.4223 3.99737 45.19L4.0128 45.1813L28.7431 31.503L22.9008 25.8957L3.51541 44.5069ZM38.7273 21.1495L31.8209 17.3313L25.3269 23.5686L31.8209 29.8029L38.7273 25.9876C40.606 24.9455 40.606 22.1916 38.7273 21.1495Z" fill="#2E65F2"/>
</g>
<defs>
<clipPath id="clip0_21_536">
<rect width="201.924" height="47.284" fill="white" transform="translate(0.0375977 0.80957)"/>
</clipPath>
</defs>
</svg>

<svg width="202" height="49" fill="none" xmlns="http://www.w3.org/2000/svg"><g clip-path="url(#a)" fill="#2E65F2"><path d="M101.422 26.614c-4.096 0-7.445 3.121-7.445 7.413 0 4.291 3.338 7.413 7.445 7.413 4.108 0 7.446-3.143 7.446-7.413 0-4.27-3.338-7.413-7.446-7.413Zm0 11.91c-2.243 0-4.183-1.853-4.183-4.497 0-2.645 1.94-4.498 4.183-4.498 2.244 0 4.184 1.82 4.184 4.498 0 2.676-1.94 4.497-4.184 4.497Zm-16.234-11.91c-4.097 0-7.445 3.121-7.445 7.413 0 4.291 3.338 7.413 7.445 7.413s7.445-3.143 7.445-7.413c0-4.27-3.338-7.413-7.445-7.413Zm0 11.91c-2.243 0-4.183-1.853-4.183-4.497 0-2.645 1.94-4.498 4.183-4.498s4.183 1.82 4.183 4.498c0 2.676-1.94 4.497-4.183 4.497ZM65.875 28.89v3.142h7.522c-.228 1.767-.813 3.057-1.713 3.956-1.094 1.095-2.807 2.298-5.808 2.298-4.639 0-8.259-3.74-8.259-8.367 0-4.627 3.62-8.366 8.259-8.366 2.503 0 4.324.986 5.667 2.243l2.222-2.222c-1.886-1.799-4.378-3.175-7.89-3.175-6.35 0-11.682 5.17-11.682 11.51s5.332 11.509 11.683 11.509c3.424 0 6.014-1.127 8.03-3.23 2.08-2.08 2.72-4.996 2.72-7.359 0-.726-.054-1.408-.173-1.961H65.865l.01.022Zm78.973 2.438c-.617-1.658-2.503-4.714-6.35-4.714-3.848 0-6.991 3.002-6.991 7.413 0 4.15 3.143 7.413 7.359 7.413 3.403 0 5.365-2.081 6.177-3.284l-2.525-1.68c-.845 1.235-1.994 2.048-3.652 2.048-1.658 0-2.839-.758-3.598-2.243l9.916-4.097-.336-.845v-.01ZM134.737 33.8c-.087-2.861 2.222-4.324 3.88-4.324 1.289 0 2.384.65 2.752 1.571l-6.621 2.753h-.011Zm-8.063 7.185h3.262V19.201h-3.262v21.794-.01Zm-5.332-12.723h-.109c-.726-.867-2.135-1.658-3.901-1.658-3.707 0-7.11 3.262-7.11 7.445s3.403 7.38 7.11 7.38c1.766 0 3.175-.79 3.901-1.68h.109v1.063c0 2.84-1.517 4.356-3.956 4.356-1.994 0-3.229-1.43-3.739-2.644l-2.839 1.181c.813 1.962 2.98 4.379 6.567 4.379 3.815 0 7.045-2.243 7.045-7.727V27.047h-3.089v1.203l.011.011Zm-3.739 10.252c-2.244 0-4.129-1.885-4.129-4.465 0-2.579 1.885-4.519 4.129-4.519 2.243 0 3.956 1.907 3.956 4.52 0 2.611-1.745 4.464-3.956 4.464Zm42.494-19.323h-7.792v21.794h3.251v-8.258h4.541c3.609 0 7.152-2.612 7.152-6.762 0-4.151-3.543-6.763-7.152-6.763v-.01Zm.086 10.502h-4.627v-7.467h4.627c2.428 0 3.815 2.015 3.815 3.738 0 1.724-1.376 3.74-3.815 3.74v-.011Zm20.104-3.132c-2.352 0-4.79 1.04-5.798 3.338l2.883 1.203c.617-1.203 1.766-1.594 2.969-1.594 1.68 0 3.392 1.008 3.425 2.807v.228c-.585-.336-1.853-.846-3.392-.846-3.111 0-6.275 1.713-6.275 4.91 0 2.915 2.547 4.79 5.408 4.79 2.189 0 3.392-.986 4.15-2.135h.109v1.68h3.143v-8.356c0-3.869-2.883-6.025-6.611-6.025h-.011Zm-.39 11.942c-1.062 0-2.547-.53-2.547-1.853 0-1.68 1.853-2.33 3.446-2.33 1.431 0 2.103.304 2.97.726-.249 2.016-1.994 3.447-3.869 3.447v.01Zm18.445-11.466-3.728 9.45h-.108l-3.869-9.45h-3.501l5.798 13.2-3.305 7.348h3.392l8.941-20.548h-3.62Zm-29.294 13.937h3.252V19.201h-3.252v21.794-.022ZM62.57 3.085a3.69 3.69 0 0 0-2.471-.953c-2.146 0-3.793 1.766-3.793 3.945 0 2.178 1.647 3.923 3.793 3.923 1.842 0 3.186-1.073 3.273-2.764h-2.915V6.033h4.497c0 3.598-1.918 5.3-4.855 5.3-2.937 0-5.18-2.352-5.18-5.256 0-2.905 2.265-5.267 5.18-5.267 1.355 0 2.58.52 3.468 1.354l-.997.921ZM72.909.929v1.29h-4.693V5.49h4.097v1.3h-4.097v3.1h4.834v1.29h-6.22V.929H72.907ZM81.893.929V2.24h-3.11v8.941h-1.398v-8.94h-3.11V.928h7.618ZM88.526.929V11.18h-1.387V.929h1.387ZM97.965.929V2.24h-3.11v8.941h-1.398v-8.94h-3.11V.928h7.618ZM107.73.81c2.937 0 5.213 2.351 5.213 5.267 0 2.915-2.276 5.256-5.213 5.256-2.937 0-5.18-2.352-5.18-5.256 0-2.905 2.265-5.267 5.18-5.267Zm0 9.179c2.157 0 3.815-1.745 3.815-3.912 0-2.168-1.648-3.934-3.815-3.934-2.168 0-3.793 1.755-3.793 3.934 0 2.178 1.647 3.912 3.793 3.912ZM121.125 11.181l-4.671-7.727v7.727h-1.387V.929h1.365l4.628 7.662V.929h1.387V11.18h-1.322ZM.038 4.554V42.58a.42.42 0 0 0 .497.41.417.417 0 0 0 .213-.113l19.725-19.31L.748 4.258a.417.417 0 0 0-.71.297Zm28.705 11.08L4.011 1.956l-.016-.009c-.426-.232-.83.346-.482.683l19.388 18.61 5.842-5.606ZM3.515 44.507c-.35.337.054.915.482.683l.016-.009 24.73-13.678-5.842-5.607-19.386 18.61ZM38.727 21.15l-6.906-3.819-6.494 6.238 6.494 6.234 6.906-3.815c1.879-1.043 1.879-3.796 0-4.838Z"/></g><defs><clipPath id="a"><path fill="#fff" transform="translate(.038 .81)" d="M0 0h201.924v47.284H0z"/></clipPath></defs></svg>
